Newaita-dark/apps/48/kvantum.svg

<svg height="48" viewBox="0 0 48 48" width="48" xmlns="http://www.w3.org/2000/svg" xmlns:xlink="http://www.w3.org/1999/xlink"><linearGradient id="a" gradientUnits="userSpaceOnUse" x1="23.81478" x2="23.81478" y1="42.0509045" y2="44.03547050005"><stop offset="0" stop-opacity=".27451"/><stop offset="1" stop-opacity="0"/></linearGradient><linearGradient id="b"><stop offset="0" stop-opacity=".313726"/><stop offset=".222222" stop-opacity=".27451"/><stop offset="1" stop-opacity="0"/></linearGradient><radialGradient id="c" cx="450.908936" cy="189.579361" gradientTransform="matrix(.00000026 -.117199 -.210958 -.00000015 79.684395 95.392999)" gradientUnits="userSpaceOnUse" r="21.166656" xlink:href="#b"/><radialGradient id="d" cx="450.908936" cy="189.579361" gradientTransform="matrix(-.00000026 .117199 .210958 .00000015 -31.80678 -11.291218)" gradientUnits="userSpaceOnUse" r="21.166656" xlink:href="#b"/><radialGradient id="e" cx="450.908936" cy="189.579361" gradientTransform="matrix(-.00000026 -.117199 .210958 -.00000015 -31.80678 95.392999)" gradientUnits="userSpaceOnUse" r="21.166656" xlink:href="#b"/><radialGradient id="f" cx="450.908936" cy="189.579361" gradientTransform="matrix(.00000026 .117199 -.210958 .00000015 79.684393 -11.291219)" gradientUnits="userSpaceOnUse" r="21.166656" xlink:href="#b"/><linearGradient id="g" gradientUnits="userSpaceOnUse" x1="23.814786" x2="23.814786" y1="4.3441570001" y2="42.0509005"><stop offset="0" stop-color="#7986cb"/><stop offset="1" stop-color="#5c6bc0"/></linearGradient><linearGradient id="h" gradientUnits="userSpaceOnUse" x1="23.814786" x2="23.814786" y1="4.3441570001" y2="42.0509005"><stop offset="0" stop-color="#4db6ac"/><stop offset="1" stop-color="#26a69a"/></linearGradient><linearGradient id="i" gradientUnits="userSpaceOnUse" x1="23.814786" x2="23.814786" y1="4.3441570001" y2="42.0509005"><stop offset="0" stop-color="#ffb74d"/><stop offset="1" stop-color="#ffa726"/></linearGradient><linearGradient id="j" gradientUnits="userSpaceOnUse" x1="23.814816" x2="23.814816" y1="42.05096580616" y2="4.34417306195"><stop offset="0" stop-color="#bdbdbd"/><stop offset="1" stop-color="#e0e0e0"/></linearGradient><path d="m6.675781 4.402344h34.277344c1.222656 0 2.210937.988281 2.210937 2.210937v33.167969c0 1.222656-.988281 2.214844-2.210937 2.214844h-34.277344c-1.21875 0-2.210937-.992188-2.210937-2.214844v-33.167969c0-1.222656.992187-2.210937 2.210937-2.210937zm0 0" fill="#7986cb" fill-opacity=".716129"/><path d="m7.691406 42.050781h32.496094v1.984375h-32.496094zm0 0" fill="url(#a)"/><path d="m40.1875 42.050781h3.96875v-1.984375h-3.96875zm0 0" fill="url(#c)"/><path d="m7.691406 42.050781h-3.96875v1.984375h3.96875zm0 0" fill="url(#d)"/><path d="m7.691406 42.050781h-3.96875v-1.984375h3.96875zm0 0" fill="url(#e)"/><path d="m40.1875 42.050781h3.96875v1.984375h-3.96875zm0 0" fill="url(#f)"/><path d="m6.675781 4.402344c-1.222656 0-2.210937.984375-2.210937 2.210937v33.167969c0 1.226562.988281 2.214844 2.210937 2.214844h34.277344c1.226563 0 2.210937-.988282 2.210937-2.214844v-33.167969c0-1.226562-.984374-2.210937-2.210937-2.210937zm0 0" fill="url(#g)"/><path d="m35.65625 4.402344-31.191406 27.292968v8.085938c0 1.226562.988281 2.214844 2.210937 2.214844h34.277344c1.226563 0 2.210937-.988282 2.210937-2.214844v-33.167969c0-1.226562-.984374-2.210937-2.210937-2.210937zm0 0" fill="url(#h)"/><path d="m43.164062 12.746094-31.195312 29.25h28.984375c1.226563 0 2.210937-.988282 2.210937-2.214844zm0 0" fill="url(#i)"/><path d="m16.847656 9.769531c-.828125.015625-1.488281.695313-1.476562 1.519531v10.753907c-.015625.117187-.015625.238281 0 .355469v8.738281c-.007813.539062.277344 1.039062.742187 1.3125.46875.269531 1.042969.269531 1.507813 0 .46875-.273438.75-.773438.746094-1.3125v-8.398438l.96875-1.183593 6.117187 12.234374c.246094.496094.746094.8125 1.296875.828126.550781.015624 1.066406-.273438 1.34375-.753907l7.9375-13.890625c.273438-.464844.277344-1.042968.007812-1.511718-.269531-.46875-.773437-.753907-1.3125-.75-.539062.007812-1.035156.300781-1.296874.773437l-6.550782 11.460937-5.464844-10.929687 5.542969-6.777344c.382813-.453125.460938-1.085937.203125-1.617187-.253906-.53125-.800781-.863282-1.390625-.84375-.441406.011718-.855469.21875-1.128906.5625l-6.273437 7.667968v-6.71875c.003906-.402343-.152344-.792968-.441407-1.078124-.285156-.289063-.675781-.445313-1.078125-.441407zm0 0" fill="url(#j)"/><path d="m16.847656 9.769531c-.828125.015625-1.488281.695313-1.476562 1.519531v.5c-.011719-.828124.648437-1.507812 1.476562-1.519531.402344-.007812.792969.152344 1.078125.4375.289063.285157.445313.675781.441407 1.082031v-.5c.003906-.402343-.152344-.792968-.441407-1.078124-.285156-.289063-.675781-.445313-1.078125-.441407zm8.921875.007813c-.441406.011718-.855469.21875-1.128906.5625l-6.273437 7.667968v.5l6.273437-7.667968c.273437-.347656.6875-.554688 1.128906-.566406.746094-.019532 1.394531.515624 1.519531 1.25.074219-.441407-.054687-.894532-.347656-1.230469-.292968-.339844-.722656-.527344-1.171875-.515625zm8.976563 7.933594c-.546875 0-1.050782.296874-1.316406.773437l-6.550782 11.460937-5.226562-10.449218-.238282.292968.152344.308594.085938-.105468 5.226562 10.453124 6.550782-11.460937c.265624-.480469.769531-.777344 1.316406-.773437.730468.003906 1.347656.53125 1.46875 1.25.074218-.433594-.046875-.878907-.328125-1.214844-.285157-.335938-.699219-.53125-1.140625-.535156zm-19.375 4.332031c-.015625.117187-.015625.238281 0 .355469zm0 0" fill="#fff" fill-opacity=".716129"/><path d="m27.175781 11.84375c-.058593.121094-.128906.238281-.21875.34375l-5.542969 6.777344.382813.769531 5.160156-6.308594c.375-.441406.457031-1.058593.21875-1.582031zm8.925781 7.9375c-.019531.046875-.042968.09375-.070312.136719l-7.9375 13.894531c-.277344.480469-.792969.769531-1.34375.753906s-1.050781-.332031-1.296875-.828125l-6.117187-12.234375-.96875 1.183594v1.242188l.96875-1.183594 6.117187 12.234375c.246094.492187.746094.808593 1.296875.824219.550781.015624 1.066406-.273438 1.34375-.753907l7.9375-13.890625c.246094-.421875.273438-.933594.070312-1.378906zm-20.730468 3.449219c-.015625.117187-.015625.238281 0 .355469zm0 7.855469v1.238281c-.007813.539062.277344 1.039062.742187 1.3125.46875.269531 1.042969.269531 1.507813 0 .46875-.273438.75-.773438.746094-1.3125v-1.238281c.003906.539062-.277344 1.039062-.746094 1.308593-.464844.273438-1.039063.273438-1.507813 0-.464843-.269531-.75-.769531-.742187-1.308593zm0 0" fill-opacity=".235294"/><path d="m679.147779 393.82068c-33.382641.629862-59.994274 28.028821-59.521878 61.253997v433.501932c-.629862 4.723959-.629862 9.605383 0 14.329341v352.249845c-.314931 21.73021 11.180035 41.885766 29.918404 52.908336 18.895834 10.865105 42.043231 10.865105 60.7816 0 18.895835-11.02257 30.233335-31.178126 30.07587-52.908336v-338.550365l39.051391-47.711982 246.590638 493.181276c9.920313 19.998092 30.07587 32.75278 52.278475 33.382641s42.988023-11.02257 54.168058-30.3908l319.969462-559.946557c11.02257-18.738369 11.180035-42.043232.31493-60.939066s-31.178126-30.3908-52.908336-30.233335c-21.730209.314931-41.728301 12.124827-52.278475 31.178127l-264.069285 462.003149-220.293935-440.58787 223.443241-273.202272c15.431598-18.265973 18.580904-43.775349 8.188195-65.190628-10.235244-21.415279-32.280384-34.799828-56.057642-34.012502-17.793577.472396-34.484898 8.818056-45.507468 22.675001l-252.889249 309.104357v-270.840292c.157465-16.218925-6.141146-31.965453-17.793577-43.460419-11.494966-11.652431-27.241495-17.951043-43.460419-17.793578zm0 0" fill="none" stroke="#212121" stroke-linecap="round" stroke-linejoin="round" stroke-width="11.338583" transform="scale(.0248071)"/><path d="m6.675781 4.402344c-1.222656 0-2.210937.984375-2.210937 2.210937v.4375c0-1.222656.988281-2.210937 2.210937-2.210937h34.277344c1.226563 0 2.210937.988281 2.210937 2.210937v-.4375c0-1.226562-.984374-2.210937-2.210937-2.210937zm0 0" fill="#fff" fill-opacity=".392157"/><path d="m6.675781 42.050781c-1.222656 0-2.210937-.984375-2.210937-2.210937v-.621094c0 1.226562.988281 2.210938 2.210937 2.210938h34.277344c1.226563 0 2.210937-.984376 2.210937-2.210938v.621094c0 1.226562-.984374 2.210937-2.210937 2.210937zm0 0" fill-opacity=".235294"/><path d="m68.785098-168.671091h370.42296c11.707215 0 21.164645 9.499093 21.164645 21.164646v359.840637c0 11.707215-9.45743 21.164645-21.164645 21.164645h-370.42296c-11.665553 0-21.164646-9.45743-21.164646-21.164645v-359.840637c0-11.665553 9.499093-21.164646 21.164646-21.164646zm0 0" fill="none" stroke="#212121" stroke-linecap="round" stroke-linejoin="round" stroke-width="3" transform="matrix(.093759 0 0 .093759 0 20.158175)"/></svg>

<?xml version="1.0" encoding="UTF-8"?>
<svg xmlns="http://www.w3.org/2000/svg" xmlns:xlink="http://www.w3.org/1999/xlink" width="48px" height="48px" viewBox="0 0 48 48" version="1.1">
<defs>
<linearGradient id="linear0" gradientUnits="userSpaceOnUse" x1="254" y1="233.5" x2="254" y2="254.666672" gradientTransform="matrix(0.093759,0,0,0.093759,-0.00000572259,20.158178)">
<stop offset="0" style="stop-color:rgb(0%,0%,0%);stop-opacity:0.27451;"/>
<stop offset="1" style="stop-color:rgb(0%,0%,0%);stop-opacity:0;"/>
</linearGradient>
<radialGradient id="radial0" gradientUnits="userSpaceOnUse" cx="450.908936" cy="189.579361" fx="450.908936" fy="189.579361" r="21.166656" gradientTransform="matrix(0.000000261256,-0.117199,-0.210958,-0.000000152308,79.684395,95.392999)">
<stop offset="0" style="stop-color:rgb(0%,0%,0%);stop-opacity:0.313726;"/>
<stop offset="0.222222" style="stop-color:rgb(0%,0%,0%);stop-opacity:0.27451;"/>
<stop offset="1" style="stop-color:rgb(0%,0%,0%);stop-opacity:0;"/>
</radialGradient>
<radialGradient id="radial1" gradientUnits="userSpaceOnUse" cx="450.908936" cy="189.579361" fx="450.908936" fy="189.579361" r="21.166656" gradientTransform="matrix(-0.000000261256,0.117199,0.210958,0.000000152308,-31.80678,-11.291218)">
<stop offset="0" style="stop-color:rgb(0%,0%,0%);stop-opacity:0.313726;"/>
<stop offset="0.222222" style="stop-color:rgb(0%,0%,0%);stop-opacity:0.27451;"/>
<stop offset="1" style="stop-color:rgb(0%,0%,0%);stop-opacity:0;"/>
</radialGradient>
<radialGradient id="radial2" gradientUnits="userSpaceOnUse" cx="450.908936" cy="189.579361" fx="450.908936" fy="189.579361" r="21.166656" gradientTransform="matrix(-0.000000261256,-0.117199,0.210958,-0.000000152308,-31.80678,95.392999)">
<stop offset="0" style="stop-color:rgb(0%,0%,0%);stop-opacity:0.313726;"/>
<stop offset="0.222222" style="stop-color:rgb(0%,0%,0%);stop-opacity:0.27451;"/>
<stop offset="1" style="stop-color:rgb(0%,0%,0%);stop-opacity:0;"/>
</radialGradient>
<radialGradient id="radial3" gradientUnits="userSpaceOnUse" cx="450.908936" cy="189.579361" fx="450.908936" fy="189.579361" r="21.166656" gradientTransform="matrix(0.000000261256,0.117199,-0.210958,0.000000152308,79.684393,-11.291219)">
<stop offset="0" style="stop-color:rgb(0%,0%,0%);stop-opacity:0.313726;"/>
<stop offset="0.222222" style="stop-color:rgb(0%,0%,0%);stop-opacity:0.27451;"/>
<stop offset="1" style="stop-color:rgb(0%,0%,0%);stop-opacity:0;"/>
</radialGradient>
<linearGradient id="linear1" gradientUnits="userSpaceOnUse" x1="254" y1="-168.666656" x2="254" y2="233.5" gradientTransform="matrix(0.093759,0,0,0.093759,0,20.158174)">
<stop offset="0" style="stop-color:rgb(47.450981%,52.549022%,79.607844%);stop-opacity:1;"/>
<stop offset="1" style="stop-color:rgb(36.078432%,41.960785%,75.294119%);stop-opacity:1;"/>
</linearGradient>
<linearGradient id="linear2" gradientUnits="userSpaceOnUse" x1="254" y1="-168.666656" x2="254" y2="233.5" gradientTransform="matrix(0.093759,0,0,0.093759,0,20.158174)">
<stop offset="0" style="stop-color:rgb(30.19608%,71.372551%,67.450982%);stop-opacity:1;"/>
<stop offset="1" style="stop-color:rgb(14.901961%,65.098041%,60.392159%);stop-opacity:1;"/>
</linearGradient>
<linearGradient id="linear3" gradientUnits="userSpaceOnUse" x1="254" y1="-168.666656" x2="254" y2="233.5" gradientTransform="matrix(0.093759,0,0,0.093759,0,20.158174)">
<stop offset="0" style="stop-color:rgb(100%,71.764708%,30.19608%);stop-opacity:1;"/>
<stop offset="1" style="stop-color:rgb(100%,65.490198%,14.901961%);stop-opacity:1;"/>
</linearGradient>
<linearGradient id="linear4" gradientUnits="userSpaceOnUse" x1="960" y1="1695.118164" x2="960" y2="175.118134" gradientTransform="matrix(0.0248071,0,0,0.0248071,0,0.00000000000000282)">
<stop offset="0" style="stop-color:rgb(74.117649%,74.117649%,74.117649%);stop-opacity:1;"/>
<stop offset="1" style="stop-color:rgb(87.843138%,87.843138%,87.843138%);stop-opacity:1;"/>
</linearGradient>
</defs>
<g id="surface1">
<path style=" stroke:none;fill-rule:nonzero;fill:rgb(47.450981%,52.549022%,79.607844%);fill-opacity:0.716129;" d="M 6.675781 4.402344 L 40.953125 4.402344 C 42.175781 4.402344 43.164062 5.390625 43.164062 6.613281 L 43.164062 39.78125 C 43.164062 41.003906 42.175781 41.996094 40.953125 41.996094 L 6.675781 41.996094 C 5.457031 41.996094 4.464844 41.003906 4.464844 39.78125 L 4.464844 6.613281 C 4.464844 5.390625 5.457031 4.402344 6.675781 4.402344 Z M 6.675781 4.402344 "/>
<path style=" stroke:none;fill-rule:nonzero;fill:url(#linear0);" d="M 7.691406 42.050781 L 40.1875 42.050781 L 40.1875 44.035156 L 7.691406 44.035156 Z M 7.691406 42.050781 "/>
<path style=" stroke:none;fill-rule:nonzero;fill:url(#radial0);" d="M 40.1875 42.050781 L 44.15625 42.050781 L 44.15625 40.066406 L 40.1875 40.066406 Z M 40.1875 42.050781 "/>
<path style=" stroke:none;fill-rule:nonzero;fill:url(#radial1);" d="M 7.691406 42.050781 L 3.722656 42.050781 L 3.722656 44.035156 L 7.691406 44.035156 Z M 7.691406 42.050781 "/>
<path style=" stroke:none;fill-rule:nonzero;fill:url(#radial2);" d="M 7.691406 42.050781 L 3.722656 42.050781 L 3.722656 40.066406 L 7.691406 40.066406 Z M 7.691406 42.050781 "/>
<path style=" stroke:none;fill-rule:nonzero;fill:url(#radial3);" d="M 40.1875 42.050781 L 44.15625 42.050781 L 44.15625 44.035156 L 40.1875 44.035156 Z M 40.1875 42.050781 "/>
<path style=" stroke:none;fill-rule:nonzero;fill:url(#linear1);" d="M 6.675781 4.402344 C 5.453125 4.402344 4.464844 5.386719 4.464844 6.613281 L 4.464844 39.78125 C 4.464844 41.007812 5.453125 41.996094 6.675781 41.996094 L 40.953125 41.996094 C 42.179688 41.996094 43.164062 41.007812 43.164062 39.78125 L 43.164062 6.613281 C 43.164062 5.386719 42.179688 4.402344 40.953125 4.402344 Z M 6.675781 4.402344 "/>
<path style=" stroke:none;fill-rule:nonzero;fill:url(#linear2);" d="M 35.65625 4.402344 L 4.464844 31.695312 L 4.464844 39.78125 C 4.464844 41.007812 5.453125 41.996094 6.675781 41.996094 L 40.953125 41.996094 C 42.179688 41.996094 43.164062 41.007812 43.164062 39.78125 L 43.164062 6.613281 C 43.164062 5.386719 42.179688 4.402344 40.953125 4.402344 Z M 35.65625 4.402344 "/>
<path style=" stroke:none;fill-rule:nonzero;fill:url(#linear3);" d="M 43.164062 12.746094 L 11.96875 41.996094 L 40.953125 41.996094 C 42.179688 41.996094 43.164062 41.007812 43.164062 39.78125 Z M 43.164062 12.746094 "/>
<path style=" stroke:none;fill-rule:nonzero;fill:url(#linear4);" d="M 16.847656 9.769531 C 16.019531 9.785156 15.359375 10.464844 15.371094 11.289062 L 15.371094 22.042969 C 15.355469 22.160156 15.355469 22.28125 15.371094 22.398438 L 15.371094 31.136719 C 15.363281 31.675781 15.648438 32.175781 16.113281 32.449219 C 16.582031 32.71875 17.15625 32.71875 17.621094 32.449219 C 18.089844 32.175781 18.371094 31.675781 18.367188 31.136719 L 18.367188 22.738281 L 19.335938 21.554688 L 25.453125 33.789062 C 25.699219 34.285156 26.199219 34.601562 26.75 34.617188 C 27.300781 34.632812 27.816406 34.34375 28.09375 33.863281 L 36.03125 19.972656 C 36.304688 19.507812 36.308594 18.929688 36.039062 18.460938 C 35.769531 17.992188 35.265625 17.707031 34.726562 17.710938 C 34.1875 17.71875 33.691406 18.011719 33.429688 18.484375 L 26.878906 29.945312 L 21.414062 19.015625 L 26.957031 12.238281 C 27.339844 11.785156 27.417969 11.152344 27.160156 10.621094 C 26.90625 10.089844 26.359375 9.757812 25.769531 9.777344 C 25.328125 9.789062 24.914062 9.996094 24.640625 10.339844 L 18.367188 18.007812 L 18.367188 11.289062 C 18.371094 10.886719 18.214844 10.496094 17.925781 10.210938 C 17.640625 9.921875 17.25 9.765625 16.847656 9.769531 Z M 16.847656 9.769531 "/>
<path style=" stroke:none;fill-rule:nonzero;fill:rgb(100%,100%,100%);fill-opacity:0.716129;" d="M 16.847656 9.769531 C 16.019531 9.785156 15.359375 10.464844 15.371094 11.289062 L 15.371094 11.789062 C 15.359375 10.960938 16.019531 10.28125 16.847656 10.269531 C 17.25 10.261719 17.640625 10.421875 17.925781 10.707031 C 18.214844 10.992188 18.371094 11.382812 18.367188 11.789062 L 18.367188 11.289062 C 18.371094 10.886719 18.214844 10.496094 17.925781 10.210938 C 17.640625 9.921875 17.25 9.765625 16.847656 9.769531 Z M 25.769531 9.777344 C 25.328125 9.789062 24.914062 9.996094 24.640625 10.339844 L 18.367188 18.007812 L 18.367188 18.507812 L 24.640625 10.839844 C 24.914062 10.492188 25.328125 10.285156 25.769531 10.273438 C 26.515625 10.253906 27.164062 10.789062 27.289062 11.523438 C 27.363281 11.082031 27.234375 10.628906 26.941406 10.292969 C 26.648438 9.953125 26.21875 9.765625 25.769531 9.777344 Z M 34.746094 17.710938 C 34.199219 17.710938 33.695312 18.007812 33.429688 18.484375 L 26.878906 29.945312 L 21.652344 19.496094 L 21.414062 19.789062 L 21.566406 20.097656 L 21.652344 19.992188 L 26.878906 30.445312 L 33.429688 18.984375 C 33.695312 18.503906 34.199219 18.207031 34.746094 18.210938 C 35.476562 18.214844 36.09375 18.742188 36.214844 19.460938 C 36.289062 19.027344 36.167969 18.582031 35.886719 18.246094 C 35.601562 17.910156 35.1875 17.714844 34.746094 17.710938 Z M 15.371094 22.042969 C 15.355469 22.160156 15.355469 22.28125 15.371094 22.398438 Z M 15.371094 22.042969 "/>
<path style=" stroke:none;fill-rule:nonzero;fill:rgb(0%,0%,0%);fill-opacity:0.235294;" d="M 27.175781 11.84375 C 27.117188 11.964844 27.046875 12.082031 26.957031 12.1875 L 21.414062 18.964844 L 21.796875 19.734375 L 26.957031 13.425781 C 27.332031 12.984375 27.414062 12.367188 27.175781 11.84375 Z M 36.101562 19.78125 C 36.082031 19.828125 36.058594 19.875 36.03125 19.917969 L 28.09375 33.8125 C 27.816406 34.292969 27.300781 34.582031 26.75 34.566406 C 26.199219 34.550781 25.699219 34.234375 25.453125 33.738281 L 19.335938 21.503906 L 18.367188 22.6875 L 18.367188 23.929688 L 19.335938 22.746094 L 25.453125 34.980469 C 25.699219 35.472656 26.199219 35.789062 26.75 35.804688 C 27.300781 35.820312 27.816406 35.53125 28.09375 35.050781 L 36.03125 21.160156 C 36.277344 20.738281 36.304688 20.226562 36.101562 19.78125 Z M 15.371094 23.230469 C 15.355469 23.347656 15.355469 23.46875 15.371094 23.585938 Z M 15.371094 31.085938 L 15.371094 32.324219 C 15.363281 32.863281 15.648438 33.363281 16.113281 33.636719 C 16.582031 33.90625 17.15625 33.90625 17.621094 33.636719 C 18.089844 33.363281 18.371094 32.863281 18.367188 32.324219 L 18.367188 31.085938 C 18.371094 31.625 18.089844 32.125 17.621094 32.394531 C 17.15625 32.667969 16.582031 32.667969 16.113281 32.394531 C 15.648438 32.125 15.363281 31.625 15.371094 31.085938 Z M 15.371094 31.085938 "/>
<path style="fill:none;stroke-width:11.338583;stroke-linecap:round;stroke-linejoin:round;stroke:rgb(12.941177%,12.941177%,12.941177%);stroke-opacity:1;stroke-miterlimit:4;" d="M 679.147779 393.82068 C 645.765138 394.450542 619.153505 421.849501 619.625901 455.074677 L 619.625901 888.576609 C 618.996039 893.300568 618.996039 898.181992 619.625901 902.90595 L 619.625901 1255.155795 C 619.31097 1276.886005 630.805936 1297.041561 649.544305 1308.064131 C 668.440139 1318.929236 691.587536 1318.929236 710.325905 1308.064131 C 729.22174 1297.041561 740.55924 1276.886005 740.401775 1255.155795 L 740.401775 916.60543 L 779.453166 868.893448 L 1026.043804 1362.074724 C 1035.964117 1382.072816 1056.119674 1394.827504 1078.322279 1395.457365 C 1100.524884 1396.087226 1121.310302 1384.434795 1132.490337 1365.066565 L 1452.459799 805.120008 C 1463.482369 786.381639 1463.639834 763.076776 1452.774729 744.180942 C 1441.909624 725.285108 1421.596603 713.790142 1399.866393 713.947607 C 1378.136184 714.262538 1358.138092 726.072434 1347.587918 745.125734 L 1083.518633 1207.128883 L 863.224698 766.541013 L 1086.667939 493.338741 C 1102.099537 475.072768 1105.248843 449.563392 1094.856134 428.148113 C 1084.62089 406.732834 1062.57575 393.348285 1038.798492 394.135611 C 1021.004915 394.608007 1004.313594 402.953667 993.291024 416.810612 L 740.401775 725.914969 L 740.401775 455.074677 C 740.55924 438.855752 734.260629 423.109224 722.608198 411.614258 C 711.113232 399.961827 695.366703 393.663215 679.147779 393.82068 Z M 679.147779 393.82068 " transform="matrix(0.0248071,0,0,0.0248071,0,0)"/>
<path style=" stroke:none;fill-rule:nonzero;fill:rgb(100%,100%,100%);fill-opacity:0.392157;" d="M 6.675781 4.402344 C 5.453125 4.402344 4.464844 5.386719 4.464844 6.613281 L 4.464844 7.050781 C 4.464844 5.828125 5.453125 4.839844 6.675781 4.839844 L 40.953125 4.839844 C 42.179688 4.839844 43.164062 5.828125 43.164062 7.050781 L 43.164062 6.613281 C 43.164062 5.386719 42.179688 4.402344 40.953125 4.402344 Z M 6.675781 4.402344 "/>
<path style=" stroke:none;fill-rule:nonzero;fill:rgb(0%,0%,0%);fill-opacity:0.235294;" d="M 6.675781 42.050781 C 5.453125 42.050781 4.464844 41.066406 4.464844 39.839844 L 4.464844 39.21875 C 4.464844 40.445312 5.453125 41.429688 6.675781 41.429688 L 40.953125 41.429688 C 42.179688 41.429688 43.164062 40.445312 43.164062 39.21875 L 43.164062 39.839844 C 43.164062 41.066406 42.179688 42.050781 40.953125 42.050781 Z M 6.675781 42.050781 "/>
<path style="fill:none;stroke-width:3;stroke-linecap:round;stroke-linejoin:round;stroke:rgb(12.941177%,12.941177%,12.941177%);stroke-opacity:1;stroke-miterlimit:4;" d="M 68.785098 -168.671091 L 439.208058 -168.671091 C 450.915273 -168.671091 460.372703 -159.171998 460.372703 -147.506445 L 460.372703 212.334192 C 460.372703 224.041407 450.915273 233.498837 439.208058 233.498837 L 68.785098 233.498837 C 57.119545 233.498837 47.620452 224.041407 47.620452 212.334192 L 47.620452 -147.506445 C 47.620452 -159.171998 57.119545 -168.671091 68.785098 -168.671091 Z M 68.785098 -168.671091 " transform="matrix(0.093759,0,0,0.093759,0,20.158175)"/>
</g>
</svg>
